X:1
T: Ap Shenkin
C: J-7
M: 6/8
B:Goulding & Co. - Twenty Four Country Dances for the Year 1808 (London)
Z:
R: jig
K: G
d/c/| "G"B2B Bgf| "C"e2e efg| "G"ded dcB| "D"cAA A2d/c/|
      "G"BcB Bgf| "C"efe efg| "G"ded "D"cBA| "G"G2B G2 :|
\
g/a/| "G"b2g "D"a2f| "G"gfg dcB| "C"cde "G"dgB| "D"BAA A2g/a/|
      "G"b2g "D"a2f| "G"gfe "D"agf| "G"bag "C"fge| "G"dgf "D"edc|
      "G"B2B Bgf| "C"e2e efg| "G"ded dcB| "D"cAA A2d/c/|
      "G"BcB Bgf| "C"efe efg| "G"ded "D"cBA| "G"G2 B G2 |]
%
